components/icon/svg/24/av_fast-forward.svg

<?xml version="1.0" encoding="UTF-8"?>
<svg width="24px" height="24px" viewBox="0 0 24 24" version="1.1" xmlns="http://www.w3.org/2000/svg" xmlns:xlink="http://www.w3.org/1999/xlink">
    <!-- Generator: Sketch 64 (93537) - https://sketch.com -->
    <title>ic-db_av_fast-forward_24</title>
    <desc>Created with Sketch.</desc>
    <g id="Symbols" stroke="none" stroke-width="1" fill="none" fill-rule="evenodd">
        <g id="24dp-Icon/AV/Fast-Forward" fill="#282D37">
            <path d="M2,13.0938 C2,8.9375 5.2187,5.4688 9.375,5.125 L8.9687,4.7188 C8.75,4.5313 8.625,4.25 8.625,3.9688 C8.625,3.4375 9.0937,3 9.6562,3 C9.875,3 10.125,3.0625 10.3125,3.2188 L12.5937,5.5313 C12.7812,5.7188 12.875,5.9375 12.875,6.2188 C12.875,6.5 12.7812,6.75 12.5937,6.9375 L10.4062,9.1563 C10.2187,9.3438 9.9687,9.4375 9.6562,9.4375 C9.125,9.4375 8.6875,8.9688 8.6875,8.4375 C8.6875,8.1875 8.7812,7.9375 9,7.75 L9.5625,7.125 C6.4375,7.3438 4,9.9688 4,13.125 C4,14.6563 4.625,16.1875 5.7812,17.375 C5.9687,17.5625 6.0625,17.8125 6.0625,18.0625 C6.0625,18.625 5.5937,19.0625 5.0625,19.0625 C4.8125,19.0625 4.5625,18.9688 4.375,18.7813 C2.8125,17.2188 2,15.1875 2,13.0938 Z M8,19.9965213 C8,19.463373 8.43522955,18.9930425 8.99481041,18.9930425 L9.98962081,18.9930425 L9.98962081,14.985001 L9.52335317,15.26728 C9.36786431,15.361306 9.18133736,15.424023 8.99481041,15.424023 C8.43522955,15.424023 8.03113757,14.9536932 8.03113757,14.420545 C8.03113757,14.1069579 8.15548887,13.7933708 8.43522955,13.57391 L10.4248504,12.256844 C10.5803392,12.1627177 10.7668662,12.1 10.9533931,12.1 C11.512974,12.1 11.9792416,12.5390222 11.9792416,13.103479 L11.9792416,18.9930425 L13.0051896,18.9930425 C13.5647704,18.9930425 14,19.463373 14,19.9965213 C14,20.5609781 13.5647704,21 13.0051896,21 L8.99481041,21 C8.43522955,21 8,20.5609781 8,19.9965213 Z M18,12 C19.7813,12 21,13.3484747 21,15.3554322 L21,17.6445678 C21,19.6515253 19.7813,21 18,21 C16.1875,21 15,19.6515253 15,17.6759767 L15,15.2927147 C15,13.2857573 16.1875,12 18,12 Z M18,14 C17.375,14 17,14.4717437 17,15.257849 L17,17.6792586 C17,18.5282563 17.375,19 18,19 C18.625,19 19,18.5282563 19,17.647762 L19,15.352238 C19,14.5031396 18.625,14 18,14 Z" id="🎨-Color"></path>
        </g>
    </g>
</svg>

<svg width="24" height="24" xmlns="http://www.w3.org/2000/svg"><path d="M2 13.094c0-4.156 3.219-7.625 7.375-7.969l-.406-.406a.998.998 0 01-.344-.75c0-.531.469-.969 1.031-.969.219 0 .469.063.656.219l2.282 2.312a.919.919 0 01.281.688.99.99 0 01-.281.718l-2.188 2.22c-.187.187-.437.28-.75.28-.531 0-.969-.468-.969-1 0-.25.094-.5.313-.687l.563-.625C6.437 7.344 4 9.969 4 13.125c0 1.531.625 3.063 1.781 4.25a.97.97 0 01.282.688c0 .562-.47 1-1 1a.97.97 0 01-.688-.282A7.998 7.998 0 012 13.094zm6 6.903c0-.534.435-1.004.995-1.004h.995v-4.008l-.467.282a1.042 1.042 0 01-.528.157c-.56 0-.964-.47-.964-1.003 0-.314.124-.628.404-.847l1.99-1.317a1.013 1.013 0 011.554.847v5.889h1.026c.56 0 .995.47.995 1.004A.986.986 0 0113.005 21h-4.01A.986.986 0 018 19.997zM18 12c1.781 0 3 1.348 3 3.355v2.29C21 19.652 19.781 21 18 21c-1.813 0-3-1.348-3-3.324v-2.383C15 13.286 16.188 12 18 12zm0 2c-.625 0-1 .472-1 1.258v2.421c0 .85.375 1.321 1 1.321s1-.472 1-1.352v-2.296c0-.849-.375-1.352-1-1.352z" fill="#282D37" fill-rule="evenodd"/></svg>
